contributed-vectors/ar_zone.svg

<svg viewBox="0 0 192 192" xmlns="http://www.w3.org/2000/svg" fill-rule="evenodd" clip-rule="evenodd" stroke-linejoin="round" stroke-miterlimit="2"><path d="M172.5 29.5c0-5.519-4.481-10-10-10h-133c-5.519 0-10 4.481-10 10v133c0 5.519 4.481 10 10 10h133c5.519 0 10-4.481 10-10v-133z" fill="#ababff"/><path d="M-.001 0l.274-.716h.102L.668 0H.561L.477-.217H.178L.099 0h-.1zm.206-.294h.243L.373-.492C.35-.552.333-.602.322-.641a.962.962 0 01-.038.137l-.079.21z" fill="#fff" fill-rule="nonzero" stroke="#fff" stroke-width=".04" transform="matrix(60.7503 0 0 65 54.552 119.264)"/><path d="M.079 0v-.716h.317c.064 0 .112.007.146.019a.16.16 0 01.079.069c.02.032.03.068.03.107a.185.185 0 01-.049.129.247.247 0 01-.153.066.235.235 0 01.057.036.48.48 0 01.079.095L.709 0H.59L.496-.149a1.474 1.474 0 00-.069-.099.229.229 0 00-.048-.047.11.11 0 00-.043-.019.225.225 0 00-.053-.004h-.11V0H.079zm.094-.4h.204a.312.312 0 00.102-.013.114.114 0 00.037-.191C.492-.626.453-.637.4-.637H.173V-.4z" fill="#fff" fill-rule="nonzero" stroke="#fff" stroke-width=".04" transform="matrix(59.2235 0 0 65 95.52 119.264)"/></svg>

<?xml version="1.0" encoding="UTF-8" standalone="no"?>
<!DOCTYPE svg PUBLIC "-//W3C//DTD SVG 1.1//EN" "http://www.w3.org/Graphics/SVG/1.1/DTD/svg11.dtd">
<svg width="100%" height="100%" viewBox="0 0 192 192" version="1.1" xmlns="http://www.w3.org/2000/svg" xmlns:xlink="http://www.w3.org/1999/xlink" xml:space="preserve" xmlns:serif="http://www.serif.com/" style="fill-rule:evenodd;clip-rule:evenodd;stroke-linejoin:round;stroke-miterlimit:2;">
    <g id="Layer2">
        <g transform="matrix(1,0,0,1,8,8)">
            <path d="M164.5,21.5C164.5,15.981 160.019,11.5 154.5,11.5L21.5,11.5C15.981,11.5 11.5,15.981 11.5,21.5L11.5,154.5C11.5,160.019 15.981,164.5 21.5,164.5L154.5,164.5C160.019,164.5 164.5,160.019 164.5,154.5L164.5,21.5Z" style="fill:rgb(171,171,255);"/>
        </g>
        <g transform="matrix(1,0,0,1,-7.80266,2.0859)">
            <g transform="matrix(60.7503,0,0,65,62.3545,117.178)">
                <path d="M-0.001,0L0.273,-0.716L0.375,-0.716L0.668,0L0.561,0L0.477,-0.217L0.178,-0.217L0.099,0L-0.001,0ZM0.205,-0.294L0.448,-0.294L0.373,-0.492C0.35,-0.552 0.333,-0.602 0.322,-0.641C0.313,-0.595 0.3,-0.549 0.284,-0.504L0.205,-0.294Z" style="fill:white;fill-rule:nonzero;stroke:white;stroke-width:0.04px;"/>
            </g>
            <g transform="matrix(59.2235,0,0,65,103.322,117.178)">
                <path d="M0.079,0L0.079,-0.716L0.396,-0.716C0.46,-0.716 0.508,-0.709 0.542,-0.697C0.575,-0.684 0.601,-0.661 0.621,-0.628C0.641,-0.596 0.651,-0.56 0.651,-0.521C0.651,-0.47 0.634,-0.427 0.602,-0.392C0.569,-0.357 0.518,-0.335 0.449,-0.326C0.474,-0.314 0.493,-0.302 0.506,-0.29C0.534,-0.265 0.56,-0.233 0.585,-0.195L0.709,0L0.59,0L0.496,-0.149C0.468,-0.192 0.445,-0.225 0.427,-0.248C0.409,-0.27 0.393,-0.286 0.379,-0.295C0.365,-0.305 0.351,-0.311 0.336,-0.314C0.325,-0.317 0.308,-0.318 0.283,-0.318L0.173,-0.318L0.173,0L0.079,0ZM0.173,-0.4L0.377,-0.4C0.42,-0.4 0.454,-0.404 0.479,-0.413C0.503,-0.422 0.521,-0.437 0.534,-0.456C0.547,-0.476 0.553,-0.497 0.553,-0.521C0.553,-0.554 0.541,-0.582 0.516,-0.604C0.492,-0.626 0.453,-0.637 0.4,-0.637L0.173,-0.637L0.173,-0.4Z" style="fill:white;fill-rule:nonzero;stroke:white;stroke-width:0.04px;"/>
            </g>
        </g>
    </g>
</svg>
